svg/furkot/mapbox-maki/doctor.svg

<svg viewBox="0 0 512 512" xmlns="http://www.w3.org/2000/svg"><path d="m166.846 236.308c-54.379 0-98.461-44.083-98.461-98.462v-78.77c0-10.873 8.818-19.691 19.691-19.691h19.693c10.874 0 19.692-8.819 19.692-19.693 0-10.875-8.818-19.692-19.692-19.692h-19.693c-32.626 0-59.076 26.45-59.076 59.076v78.77c.052 45.158 22.284 87.415 59.47 113.035 35.57 31.358 56.77 75.894 58.684 123.273 0 76.13 61.716 137.846 137.846 137.846s137.846-61.716 137.846-137.846v-22.449c42.123-10.875 67.45-53.839 56.577-95.96-10.878-42.123-53.839-67.451-95.962-56.578-42.121 10.878-67.449 53.84-56.576 95.962 7.165 27.746 28.83 49.412 56.576 56.576v22.449c0 54.379-44.082 98.461-98.461 98.461s-98.461-44.082-98.461-98.461c2.013-47.439 23.362-91.986 59.076-123.273 37.038-25.711 59.117-67.947 59.078-113.035v-78.77c0-32.626-26.452-59.076-59.078-59.076h-19.691c-10.875 0-19.693 8.818-19.693 19.692 0 10.873 8.818 19.693 19.693 19.693h19.691c10.875 0 19.693 8.818 19.693 19.691v78.77c0 54.379-44.083 98.462-98.462 98.462m236.308 78.77c-21.753 0-39.385-17.634-39.385-39.385s17.632-39.385 39.385-39.385 39.385 17.632 39.385 39.385-17.632 39.385-39.385 39.385z"/></svg>

<svg viewBox="0 0 512 512" xmlns="http://www.w3.org/2000/svg"><path d="M 166.846 236.308 C 112.467 236.308 68.385 192.225 68.385 137.846 L 68.385 137.846 L 68.385 59.076 C 68.385 48.203 77.203 39.385 88.076 39.385 L 107.769 39.385 C 118.643 39.385 127.461 30.566 127.461 19.692 C 127.461 8.817 118.643 0 107.769 0 L 88.076 0 C 55.45 0 29 26.45 29 59.076 L 29 137.846 C 29.052 183.004 51.284 225.261 88.47 250.881 L 88.47 250.881 C 124.04 282.239 145.24 326.775 147.154 374.154 C 147.154 450.284 208.87 512 285 512 C 361.13 512 422.846 450.284 422.846 374.154 L 422.846 351.705 C 464.969 340.83 490.296 297.866 479.423 255.745 C 468.545 213.622 425.584 188.294 383.461 199.167 C 341.34 210.045 316.012 253.007 326.885 295.129 C 334.05 322.875 355.715 344.541 383.461 351.705 L 383.461 374.154 C 383.461 428.533 339.379 472.615 285 472.615 C 230.621 472.615 186.539 428.533 186.539 374.154 C 188.552 326.715 209.901 282.168 245.615 250.881 L 245.615 250.881 C 282.653 225.17 304.732 182.934 304.693 137.846 L 304.693 59.076 C 304.693 26.45 278.241 0 245.615 0 L 225.924 0 C 215.049 0 206.231 8.818 206.231 19.692 C 206.231 30.565 215.049 39.385 225.924 39.385 L 245.615 39.385 C 256.49 39.385 265.308 48.203 265.308 59.076 L 265.308 137.846 L 265.308 137.846 C 265.308 192.225 221.225 236.308 166.846 236.308 M 403.154 315.078 C 381.401 315.078 363.769 297.444 363.769 275.693 C 363.769 253.942 381.401 236.308 403.154 236.308 C 424.907 236.308 442.539 253.94 442.539 275.693 C 442.539 297.446 424.907 315.078 403.154 315.078 Z"/></svg>
